X:1
T:Four Seasons - Inverno
T:Largo (2nd mov)
T:Antonio Vivaldi
%%score 1 ( 2 3 ) ( 4 5 ) 6
L:1/8
M:4/4
K:C
V:1 treble nm="Violin" snm="Vln."
V:2 treble-8 nm="Guitar 1" snm="Guit1."
V:3 treble-8 
V:4 treble-8 nm="Guitar 2" snm="Guit2."
V:5 treble-8 
V:6 bass nm="Violoncello" snm="Vlc."
V:1
 cg/f/ ed/c/ dG z G | f/e/d/c/ Bf fe z e | de/f/ ga/b/ cd/e/ fg/a/ | Bc/d/ ef/g/ AB/c/ de/c/ | %4
 (B2 B/)G/^F/G/ (d2 d/)G/F/G/ | (e2 e/)G/^F/G/ (^f2 f/)d/c/d/ | gG z g g/^f/e/d/ c/B/A/G/ | %7
 TA3 G G2 z2 | Gd/c/ BA/G/ AD z D | c/B/A/G/ ^Fc TcB z G | f/e/d/c/ Bf Tfe z e | %11
 AB/c/ de/f/ Bc/d/ ef/g/ | cd/e/ fg/a/ B2 z B/c/ | d/B/A/G/ e/f/g/e/ dG z B/c/ | %14
 d/B/A/G/ e/f/g/e/ dG z d/g/ | ed/c/ B>c c4- | c8 | !fermata!c8 |] %18
V:2
 c/e/g/e/ c/e/g/e/ B/d/g/d/ B/d/g/d/ | B/d/f/d/ B/d/f/d/ c/e/g/e/ c/e/g/e/ | %2
 d/f/g/f/ g/f/e/d/ e/e/f/e/ f/e/d/c/ | d/d/e/d/ e/d/c/B/ c/c/d/c/ d/c/B/A/ | %4
 B/d/g/d/ B/d/g/d/ B/d/g/d/ B/d/g/d/ | c/e/g/e/ c/e/g/e/ d/^f/a/f/ d/f/a/f/ | %6
 B/d/g/d/ B/d/g/d/ A/d/g/d/ A/d/g/d/ | A/d/^f/d/ A/d/f/A/ G/B/d/B/ G/B/d/B/ | %8
 G/B/d/B/ G/B/d/B/ ^F/A/d/A/ F/A/d/A/ | ^F/A/c/A/ F/A/c/A/ B/d/g/d/ B/d/g/d/ | %10
 B/d/f/d/ B/d/f/d/ c/e/g/e/ c/e/g/e/ | c/f/c/f/ d/f/d/f/ d/g/d/g/ e/g/e/g/ | %12
 e/a/e/a/ f/a/f/a/ B/d/g/d/ B/d/g/d/ | B/d/g/d/ c/e/g/c/ B/d/g/d/ B/d/g/d/ | %14
 B/d/g/d/ c/e/g/c/ B/d/g/d/ B/d/g/d/ | c/e/g/c/ B/d/g/d/ c/e/g/e/ c/e/g/c/ | %16
 G/c/e/c/ G/c/e/c/ E/G/c/G/ E/G/c/G/ | !fermata!E8 |] %18
V:3
 G,8 | G,8 | G,6 F,2- | F,2 E,4 D2 | D6 G,2 | G,4 A,3 _G, | (D8 | D4) D4 | D8 | D8 | D2 G,2 G,4 | %11
 C2 D4 E,2 | E,2 F,2 G,4 | G,8 | G,8 | C2 G,2 C4 | C4 G,4 | z8 |] %18
V:4
 B/c/e/c/ G/c/e/c/ G/B/d/B/ G/B/d/B/ | G/B/d/B/ G/B/d/B/ G/c/e/c/ G/c/e/c/ | %2
 B/B/e/d/ e/d/c/B/ c/A/d/c/ d/c/B/A/ | B/G/c/d/ c/B/A/G/ A/F/B/A/ B/A/G/^F/ | %4
 G/B/d/B/ G/B/d/B/ G/B/d/B/ G/B/d/B/ | G/c/e/c/ G/c/e/c/ A/d/^f/d/ A/d/f/A/ | %6
 G/B/d/B/ G/B/d/B/ G/A/d/A/ G/A/d/A/ | ^F/A/d/A/ F/A/d/A/ D/G/B/G/ D/G/B/G/ | %8
 D/G/B/G/ D/G/B/D/ D/^F/A/F/ D/F/A/F/ | D/^F/A/F/ D/F/A/F/ G/B/d/B/ G/B/d/B/ | %10
 G/B/d/B/ G/B/d/B/ G/c/e/c/ G/c/e/c/ | A/c/A/c/ A/d/A/d/ B/d/B/d/ B/e/B/e/ | %12
 c/e/c/e/ c/f/c/f/ G/B/d/B/ G/B/d/B/ | G/B/d/B/ G/c/e/G/ G/B/d/B/ G/B/d/B/ | %14
 G/B/d/B/ G/c/e/G/ G/B/d/B/ G/B/d/G/ | G/c/e/G/ G/B/d/B/ G/c/e/c/ G/c/e/G/ | %16
 E/G/c/G/ E/G/c/G/ C/E/G/E/ C/E/G/E/ | !fermata!C8 |] %18
V:5
 G,8 | G,8 | G,6 F,2- | F,2 E,4 D2 | D6 G,2 | G,4 A,3 _G, | G,8- | G,4 G,4 | G,8 | D2 D2 G,4 | %10
 D2 G,2 G,4 | C2 D4 E,2 | E,2 F,2 G,4 | G,8 | G,8 | C2 G,2 C4 | C4 G,4 | z8 |] %18
V:6
 C,C,C,C, G,,G,,G,,G,, | G,,G,,G,,G,, C,C,C,C, | B,,B,,B,,B,, A,,A,,A,,A,, | %3
 G,,G,,G,,G,, F,,F,,_G,,G,, | G,,G,,G,,G,, G,,G,,G,,G,, | C,C,C,C, C,C,C,C, | %6
 G,,G,,G,,G,, D,,D,,D,,D,, | D,,D,,D,,D,, G,,G,,G,,G,, | G,,G,,G,,G,, D,,D,,D,,D,, | %9
 D,,D,,D,,D,, G,,G,,G,,G,, | G,,G,,G,,G,, C,C,C,C, | F,,F,,F,,F,, G,,G,,G,,G,, | %12
 A,,A,,A,,A,, G,,G,,G,,G,, | G,,G,,G,,G,, G,,G,,G,,G,, | G,,G,,G,,G,, G,,G,,G,,G,, | %15
 C,,C,,G,,G,, C,,C,,C,,C,, | C,,C,,C,,C,, C,,C,,C,,C,, | !fermata!C,,8 |] %18

